X: 1
T: Hommage \`a la belle Gasp\'esie
C: Marcel Messervier
M: C|
L: 1/8
Z: 20040503 by John Chambers jc:ecf-guest.mit.edu
K: A
EA \
| "A"c3d cBAc | feef e2EA | c3d cBAc | "Bm"edde d2Bc |
| "(E7)"dcde dcBA | "E7"BABc B2cd | edef edcB |1 "A"cBcd cA :|2 "A"Ac "E7"(3BcB "A"A2 |]
|: ce \
| "D"aA=gA fAeA | "A"Acef ecAF | "E7"EGBc (3dcB GB |1,3 "A"ABcd e2 :|2,4 "A"Ac "E7"(3BcB "A"A2 :|
